X: 1
T: St\odt kanel
T: Pounded Cinnamon
O: trad Danmark
R: waltz
S: http://www.folkdance.suite.dk/u9/main.htm
Z: 2007 John Chambers <jc:trillian.mit.edu>
M: 3/4
L: 1/8
K: G
D2 \
| "G"G2 B2 G2 | "D7"F2 A2 D2 |  "G"G2 B2 G2 | "D7"A4 D2 \
| "G"G2 B2 G2 |  "C"c2 c2 B2 | "D7"A2 G2 F2 |  "G"G4   :|
|: dc \
| "G"B2 Bc d2 | "D7"A2 AB c2 |  "G"B2 Bc d2 | "D7"A4 D2 \
| "G"G2 B2 G2 |  "C"c4    B2 | "D7"A2 G2 F2 |  "G"G4   :|
